X: 135
T: Missa Sub tuum presidium / Sanctus
N: Derived from Rue1029d-Missa_Sub_tuum_presidium-Sanctus.krn
C: Pierre de la Rue
%%abc-version 2.0
%%abcx-abcm2ps-target-version 5.9.1 (29 Sep 2008)
%%abc-creator hum2abc beta
%%abcx-conversion-date 2019/02/17 08:01:15
%%abc-edited-by Jesse Rodin
%%abc-edited-by Will Watson 03/09/2011
%%abcx-initial-encoding-date 2012/01/22/
%%humdrum-veritas 986846648
%%humdrum-veritas-data 360079890
%%linebreak <none>
%%barnumbers 0
L: 1/4
M: 3/1
Q: 1/2=120
%%staves [1 2 3 4]
V: 1 clef=treble
V: 2 clef=treble-8
V: 3 clef=treble-8
V: 4 clef=bass
K: C
[V:1] E4G2A2B4- | 
[V:2] e6c2d2e2 | 
[V:3] z12 | 
[V:4] z12 | 
[V:1] B2G2A2B2EFGE | 
[V:2] BcdBc2B2e3c | 
[V:3] z12 | 
[V:4] z12 | 
[V:1] F2E2c3AB2c2 | 
[V:2] d2e2ABcdB2A2 | 
[V:3] z12 | 
[V:4] z12 | 
[V:1] ABcdB2A4d2 | 
[V:2] f3de2f2d4 | 
[V:3] z12 | 
[V:4] z12 | 
[V:1] cBB4A2B2zE | 
[V:2] e2dBc4zBc2 | 
[V:3] z12 | 
[V:4] z12 | 
[V:1] G2A2B2E2B4 | 
[V:2] zBc2B2c2d4 | 
[V:3] z12 | 
[V:4] z4z4B,,4 | 
[V:1] c8B3c | 
[V:2] e8e4 | 
[V:3] E8G4 | 
[V:4] A,,8E,4 | 
[V:1] dcBAG2A4^G2 | 
[V:2] d4e8 | 
[V:3] A4B8 | 
[V:4] F,4E,8 | 
[V:1] A4z2c2B2A2 | 
[V:2] z2e2d2e2dBc2 | 
[V:3] A3GF2E2G2A2 | 
[V:4] A,,4z4z4 | 
[V:1] G2c2BcA2G3E | 
[V:2] B2e2dec2B2G2 | 
[V:3] B2zEG2A2B2c2 | 
[V:4] z4z4z2E,2- | 
[V:1] F4E2E4D2 | 
[V:2] A4z4z4 | 
[V:3] dcBAG2c2B2A2 | 
[V:4] E,D,D,2E,2A,2G,E,F,2 | 
[V:1] E4z4z4 | 
[V:2] z4z4EFGA | 
[V:3] G2c2BcA2B4- | 
[V:4] E,2A,2G,A,F,2E,4- | 
[V:1] EFGAB2E2GABc | 
[V:2] B2E2GABcd2GA | 
[V:3] B4z4G4- | 
[V:4] E,8z4 | 
[V:1] d2G2c3BBAc2- | 
[V:2] B2E2e8 | 
[V:3] G4A4G2A2 | 
[V:4] z4A,,B,,C,D,E,2A,,2 | 
[V:1] c2BAG2c2BGA2 | 
[V:2] e4z2e4f2 | 
[V:3] EFGAB2E2GABc | 
[V:4] C,D,E,F,G,2C,3B,,A,,2 | 
[V:1] B8z2G2- | 
[V:2] g3fd2g4fe | 
[V:3] d2G2d4z2B2- | 
[V:4] G,,12 | 
[V:1] G2G2E2G3FED | 
[V:2] d4z2e3dcB | 
[V:3] B2B2c2B2c4 | 
[V:4] z4z4C,4 | 
[V:1] D8z2d2- | 
[V:2] B8B4 | 
[V:3] d4z2d4d2 | 
[V:4] G,,12- | 
[V:1] d2d2B2d3cBA | 
[V:2] G6G2A2B2 | 
[V:3] B2d3cBAA2d2 | 
[V:4] G,,8D,4 | 
[V:1] A4z2d2c2A2 | 
[V:2] c2d2B4z2c2 | 
[V:3] c2A4G2A4 | 
[V:4] z2D,3C,B,,A,,A,,4 | 
[V:1] BAGFE4z2d2 | 
[V:2] d4z2c2d4 | 
[V:3] z2d2c2A2BAGF | 
[V:4] G,,4A,,4G,,4 | 
[V:1] c2A2BAGFEA,A2- | 
[V:2] z2c2d2B2e4- | 
[V:3] E4z2d2c2A2 | 
[V:4] A,,4G,,4A,,4 | 
[V:1] A2^G2A2zA=G2E2 | 
[V:2] e4c3AB2c2 | 
[V:3] B4A4z4 | 
[V:4] E,4z2F,2E,2C,2 | 
[V:1] FEDCB,2E4D2 | 
[V:2] A3GB4z4 | 
[V:3] z2A2G2E2F4 | 
[V:4] D,4z2E,2D,2B,,2 | 
[V:1] E12- | 
[V:2] z2c2B2G2A3B | 
[V:3] E12- | 
[V:4] C,3D,E,4A,,4 | 
[V:1] E12 ||  
[V:2] B12 ||  
[V:3] E12 ||  
[V:4] E,12 ||  
[V:1]  [K:C] [K:clef=treble][M:2/1]z8 | 
[V:2]  [K:C] [K:clef=treble-8][M:2/1]E4E3F | 
[V:3]  [K:C] [K:clef=treble-8][M:2/1]z8 | 
[V:4]  [K:C] [K:clef=bass][M:2/1]z4E,4 | 
[V:1] z8 | 
[V:2] G2A2B2c2- | 
[V:3] z8 | 
[V:4] E,8 | 
[V:1] z8 | 
[V:2] c2B3GA2 | 
[V:3] z8 | 
[V:4] D,4C,4 | 
[V:1] z8 | 
[V:2] d3Bc2B2- | 
[V:3] z8 | 
[V:4] B,,2E,3C,D,2 | 
[V:1] z8 | 
[V:2] BGA2B4- | 
[V:3] z8 | 
[V:4] E,3C,D,2E,2- | 
[V:1] z8 | 
[V:2] B8- | 
[V:3] z8 | 
[V:4] E,C,D,2E,2D,2 | 
[V:1] z8 | 
[V:2] B4A4 | 
[V:3] z8 | 
[V:4] E,2B,,2C,4 | 
[V:1] B8 | 
[V:2] B8 | 
[V:3] z8 | 
[V:4] B,,2E,3C,D,2 | 
[V:1] B4A4 | 
[V:2] z8 | 
[V:3] z8 | 
[V:4] E,2B,,2C,2D,2 | 
[V:1] B2E3CD2 | 
[V:2] B8 | 
[V:3] z8 | 
[V:4] G,,4G,4- | 
[V:1] E2B,2C2D2 | 
[V:2] B4A4 | 
[V:3] z8 | 
[V:4] G,4F,4 | 
[V:1] G,4G4 | 
[V:2] B8 | 
[V:3] z8 | 
[V:4] G,4G,2E,2- | 
[V:1] G2E4DC | 
[V:2] z4c4 | 
[V:3] z8 | 
[V:4] E,2C,4B,,A,, | 
[V:1] B,8 | 
[V:2] d4d2B2- | 
[V:3] z8 | 
[V:4] G,,4G,4- | 
[V:1] z4c4 | 
[V:2] B2AGA4 | 
[V:3] z8 | 
[V:4] G,2^F,E,F,4 | 
[V:1] B2d3cBA/G/ | 
[V:2] G8 | 
[V:3] z8 | 
[V:4] G,8 | 
[V:1] A4G4 | 
[V:2] d4e4 | 
[V:3] z8 | 
[V:4] D,4z2G,2- | 
[V:1] z8 | 
[V:2] e2c4BA | 
[V:3] z8 | 
[V:4] G,2E,4D,C, | 
[V:1] d4d2B2- | 
[V:2] B4A2B2- | 
[V:3] z8 | 
[V:4] D,2G,,2D,2G,,2 | 
[V:1] B2AGA4 | 
[V:2] BGG4^F2 | 
[V:3] z8 | 
[V:4] B,,2C,2A,,4 | 
[V:1] z2D2D2E2- | 
[V:2] G8 | 
[V:3] z8 | 
[V:4] G,,8 | 
[V:1] E2DCB,2D2 | 
[V:2] z8 | 
[V:3] z8 | 
[V:4] z2D,2D,4 | 
[V:1] C2B,3CDE | 
[V:2] z8 | 
[V:3] z8 | 
[V:4] E,6D,C, | 
[V:1] D2B,4A,2 | 
[V:2] z4e4 | 
[V:3] z8 | 
[V:4] B,,2D,2C,4 | 
[V:1] B,4z4 | 
[V:2] d2B3cde | 
[V:3] z8 | 
[V:4] B,,2E,4D,2 | 
[V:1] z2B2c4 | 
[V:2] d2B4A2 | 
[V:3] z8 | 
[V:4] B,,2D,2C,4 | 
[V:1] d2B3GA2 | 
[V:2] B4c4 | 
[V:3] z8 | 
[V:4] B,,4z4 | 
[V:1] D2d2c2B2- | 
[V:2] B4z2B2 | 
[V:3] z8 | 
[V:4] B,,4A,,2B,,2 | 
[V:1] B2A2B2G2 | 
[V:2] d2c2B4 | 
[V:3] z8 | 
[V:4] G,,2A,,2G,,2G,2 | 
[V:1] A2G4c2- | 
[V:2] A2B2G2A2 | 
[V:3] z8 | 
[V:4] F,2G,2E,2F,2 | 
[V:1] c2B4A2 | 
[V:2] G4c4 | 
[V:3] z8 | 
[V:4] E,6F,2 | 
[V:1] B2G2A4 | 
[V:2] B2B4A2 | 
[V:3] z8 | 
[V:4] D,2E,2C,4 | 
[V:1] z2D4G2- | 
[V:2] B8 | 
[V:3] z8 | 
[V:4] B,,8 | 
[V:1] GFEDC2B,2- | 
[V:2] z8 | 
[V:3] z8 | 
[V:4] z2E,3C,D,2 | 
[V:1] B,2E4D2 | 
[V:2] z8 | 
[V:3] z8 | 
[V:4] E,4F,4 | 
[V:1] E4z2G2 | 
[V:2] z4z2e2 | 
[V:3] z8 | 
[V:4] E,8 | 
[V:1] E2F2G2B2 | 
[V:2] c2d2e4 | 
[V:3] z8 | 
[V:4] z4z2E,2- | 
[V:1] A4G4 | 
[V:2] f4e4 | 
[V:3] z8 | 
[V:4] E,2D,2E,2G,2 | 
[V:1] c3BBAA2- | 
[V:2] z2d2B2c2 | 
[V:3] z8 | 
[V:4] E,2F,2G,2A,2 | 
[V:1] A2d2B2c2 | 
[V:2] d4e4 | 
[V:3] z8 | 
[V:4] D,4z4 | 
[V:1] d2B2G2A2 | 
[V:2] d2G2E2F2 | 
[V:3] z8 | 
[V:4] z8 | 
[V:1] B2G4FE | 
[V:2] G4c4 | 
[V:3] z8 | 
[V:4] z2G,2E,2F,2 | 
[V:1] D2G4F2 | 
[V:2] B2G2A4 | 
[V:3] z8 | 
[V:4] G,2E,2C,2D,2 | 
[V:1] G4z4 | 
[V:2] z2G2E2F2 | 
[V:3] z8 | 
[V:4] E,2C,4B,,A,, | 
[V:1] z2d2B2c2 | 
[V:2] G2d2e4 | 
[V:3] z8 | 
[V:4] G,,4z4 | 
[V:1] d2B2G2A2 | 
[V:2] d2G2E2F2 | 
[V:3] z8 | 
[V:4] G,,4z4 | 
[V:1] B2G4FE | 
[V:2] G4E2F2 | 
[V:3] z8 | 
[V:4] G,,8- | 
[V:1] D8- | 
[V:2] G4D4 | 
[V:3] z8 | 
[V:4] G,,8- | 
[V:1] D8 ||  
[V:2] G8 ||  
[V:3] z8 ||  
[V:4] G,,8 ||  
[V:1]  [K:C] [K:clef=treble][M:2/1]B8 | 
[V:2]  [K:C] [K:clef=treble-8][M:2/1]d8 | 
[V:3]  [K:C] [K:clef=treble-8][M:2/1]G8- | 
[V:4]  [K:C] [K:clef=bass][M:2/1]G,,8- | 
[V:1] B4B2G2- | 
[V:2] d4B4 | 
[V:3] G8 | 
[V:4] G,,8 | 
[V:1] G2FEG3F | 
[V:2] c3BG4 | 
[V:3] G6E2 | 
[V:4] C,8 | 
[V:1] D4z4 | 
[V:2] z2d4B2- | 
[V:3] G3FD2d2- | 
[V:4] B,,8- | 
[V:1] d4d2B2- | 
[V:2] B2G2d4 | 
[V:3] d2B4G2 | 
[V:4] B,,8 | 
[V:1] B2AGG4 | 
[V:2] B4c4 | 
[V:3] G8 | 
[V:4] E,8 | 
[V:1] z4d4- | 
[V:2] d8- | 
[V:3] A8 | 
[V:4] D,8- | 
[V:1] d4d4 | 
[V:2] d8 | 
[V:3] A4G4- | 
[V:4] D,4B,,4 | 
[V:1] c4A4 | 
[V:2] z4d4 | 
[V:3] G2E2^F4 | 
[V:4] C,4D,4 | 
[V:1] B6AG | 
[V:2] d2e4dc | 
[V:3] G8- | 
[V:4] G,,8 | 
[V:1] G2FED2E2- | 
[V:2] B3AB2c2- | 
[V:3] G8 | 
[V:4] z4z2C,2- | 
[V:1] E2D2E2DC | 
[V:2] c2G3ABc | 
[V:3] z8 | 
[V:4] C,2B,,2C,2B,,A,, | 
[V:1] B,8 | 
[V:2] d4z2G2- | 
[V:3] z8 | 
[V:4] G,,4z2E,2- | 
[V:1] z8 | 
[V:2] G2F2G2FE | 
[V:3] B8 | 
[V:4] E,2D,2E,2D,C, | 
[V:1] B8 | 
[V:2] D2d4B2 | 
[V:3] B6AG | 
[V:4] B,,8 | 
[V:1] B6AG | 
[V:2] B8- | 
[V:3] G8- | 
[V:4] E,8 | 
[V:1] G8- | 
[V:2] B8 | 
[V:3] G8 | 
[V:4] E,6D,C, | 
[V:1] G8 | 
[V:2] e8 | 
[V:3] c6B2 | 
[V:4] C,8- | 
[V:1] c6BA | 
[V:2] e6dc | 
[V:3] A4G4 | 
[V:4] C,8 | 
[V:1] AEA4G2 | 
[V:2] c8 | 
[V:3] A4z2E2 | 
[V:4] F,6E,2 | 
[V:1] A4z2E2 | 
[V:2] f4e2e2- | 
[V:3] F2EDC4 | 
[V:4] D,3C,A,,2C,2 | 
[V:1] F2EDC2A2 | 
[V:2] e2d2e4 | 
[V:3] z2A2c3B | 
[V:4] D,2C,B,,A,,4- | 
[V:1] c2BAG2A2- | 
[V:2] z2e4dc | 
[V:3] A2GFE4 | 
[V:4] A,,4z4 | 
[V:1] A2^G2A4 | 
[V:2] B4A2d2- | 
[V:3] z2B2c2BA | 
[V:4] z8 | 
[V:1] d8 | 
[V:2] dcBA^G3^F | 
[V:3] G2FED4 | 
[V:4] B,,8 | 
[V:1] c6BA | 
[V:2] A8- | 
[V:3] E8- | 
[V:4] A,,8- | 
[V:1] A2GFE2A2 | 
[V:2] A8 | 
[V:3] E8 | 
[V:4] A,,8 | 
[V:1] G2E4D2 | 
[V:2] z8 | 
[V:3] z2G2A2B2 | 
[V:4] z2E,2F,2G,2 | 
[V:1] E2G2A2B2 | 
[V:2] z2e2f2g2 | 
[V:3] c4z4 | 
[V:4] C,4z4 | 
[V:1] E2G3FD2 | 
[V:2] c3BA2G2- | 
[V:3] z2G2A2B2 | 
[V:4] z2E,2F,2G,2 | 
[V:1] E3DC2B,2- | 
[V:2] G2G3ABc | 
[V:3] c4G4 | 
[V:4] C,4E,4 | 
[V:1] B,2B2c2A2 | 
[V:2] d4z2c2 | 
[V:3] F2D2E4 | 
[V:4] D,2B,,2A,,2C,2 | 
[V:1] B2c2A2B2- | 
[V:2] d2e2c2d2 | 
[V:3] z2G2A2F2 | 
[V:4] B,,2E,2F,2D,2 | 
[V:1] B2c2A2B2- | 
[V:2] B2e2f2g2 | 
[V:3] G4A2G2 | 
[V:4] E,4z2E,2 | 
[V:1] BAA4^G2 | 
[V:2] f4e4- | 
[V:3] c2d2B4 | 
[V:4] F,2D,2E,4 | 
[V:1] A2E2F2D2 | 
[V:2] e2c2d2B2 | 
[V:3] A4z4 | 
[V:4] A,,4z4 | 
[V:1] E2G2A2F2 | 
[V:2] c4A4 | 
[V:3] z8 | 
[V:4] z2E,2F,2D,2 | 
[V:1] G2B2c2d2 | 
[V:2] G4z2d2 | 
[V:3] z2G2A2B2 | 
[V:4] E,3D,C,2B,,2 | 
[V:1] G2c4B2- | 
[V:2] e2c2d2B2 | 
[V:3] E2F2D2G2 | 
[V:4] C,2A,,2B,,2G,,2 | 
[V:1] B2A4^G2 | 
[V:2] c2A2B4 | 
[V:3] E2F2G2E2 | 
[V:4] A,,2F,,2E,,4 | 
[V:1] A8- | 
[V:2] A8- | 
[V:3] F2D2F3E | 
[V:4] z4A,,4 | 
[V:1] A8 ||  
[V:2] A8 ||  
[V:3] E8 ||  
[V:4] A,,8 ||  
[V:1]  [K:C] [K:clef=treble][M:2/1]z8 | 
[V:2]  [K:C] [K:clef=treble-8][M:2/1]z8 | 
[V:3]  [K:C] [K:clef=treble-8][M:2/1]B8 | 
[V:4]  [K:C] [K:clef=bass][M:2/1]E,4E,2E,2 | 
[V:1] z8 | 
[V:2] z8 | 
[V:3] B4B4 | 
[V:4] D,2B,,2E,2F,2 | 
[V:1] z8 | 
[V:2] z8 | 
[V:3] B8 | 
[V:4] G,2A,3G,G,2 | 
[V:1] z8 | 
[V:2] z8 | 
[V:3] c4A2B2 | 
[V:4] A,3G,F,E,E,2- | 
[V:1] z8 | 
[V:2] z8 | 
[V:3] c2d4c2 | 
[V:4] E,2D,2E,4 | 
[V:1] z8 | 
[V:2] z8 | 
[V:3] d4z2A2 | 
[V:4] z2B,,2D,4 | 
[V:1] z8 | 
[V:2] z8 | 
[V:3] c3BGABc | 
[V:4] A,,2E,4B,,2- | 
[V:1] z8 | 
[V:2] z8 | 
[V:3] B2E2z2B2 | 
[V:4] B,,2E,2G,4 | 
[V:1] z8 | 
[V:2] z8 | 
[V:3] d3cA2c2- | 
[V:4] D,2F,4E,2 | 
[V:1] z8 | 
[V:2] z8 | 
[V:3] c2B2BAGF | 
[V:4] E,8- | 
[V:1] z8 | 
[V:2] z8 | 
[V:3] EFGAB2c2- | 
[V:4] E,8 | 
[V:1] z8 | 
[V:2] z8 | 
[V:3] cBBAG4 | 
[V:4] E,8 | 
[V:1] z8 | 
[V:2] z8 | 
[V:3] z2c4cB | 
[V:4] z2F,4E,2 | 
[V:1] z8 | 
[V:2] z8 | 
[V:3] BAc3BBA | 
[V:4] E,D,C,B,,A,,B,,C,D, | 
[V:1] z8 | 
[V:2] z8 | 
[V:3] cBBAc3B | 
[V:4] E,2F,3E,E,D, | 
[V:1] z8 | 
[V:2] z8 | 
[V:3] BAA3^G^G^F | 
[V:4] C,2D,2B,,4 | 
[V:1] z8 ||  
[V:2] z8 ||  
[V:3] A8 ||  
[V:4] A,,8 ||  
[V:1]  [K:C] [K:clef=treble][M:2/1]E8- | 
[V:2]  [K:C] [K:clef=treble-8][M:2/1]e6dc | 
[V:3]  [K:C] [K:clef=treble-8][M:2/1]z8 | 
[V:4]  [K:C] [K:clef=bass][M:2/1]z8 | 
[V:1] E8 | 
[V:2] dcBAG2A2- | 
[V:3] z8 | 
[V:4] z8 | 
[V:1] E8 | 
[V:2] AGG2A2E2- | 
[V:3] z8 | 
[V:4] z8 | 
[V:1] B8- | 
[V:2] E2e4dc | 
[V:3] z8 | 
[V:4] z8 | 
[V:1] B8 | 
[V:2] dcBAGABc | 
[V:3] z8 | 
[V:4] z2E,4D,C, | 
[V:1] B8 | 
[V:2] B2A4^G2 | 
[V:3] z8 | 
[V:4] D,C,B,,A,,B,,4 | 
[V:1] c4A2c2- | 
[V:2] A8- | 
[V:3] z8 | 
[V:4] A,,8- | 
[V:1] c2BABAGF | 
[V:2] A8 | 
[V:3] z8 | 
[V:4] A,,8 | 
[V:1] E2F3EED | 
[V:2] z2d3ccB | 
[V:3] z8 | 
[V:4] z8 | 
[V:1] F2E3DDC | 
[V:2] d2e2f3e | 
[V:3] z8 | 
[V:4] z8 | 
[V:1] E3CD2E2 | 
[V:2] c2e2f2e2- | 
[V:3] z8 | 
[V:4] z8 | 
[V:1] F3GABcB | 
[V:2] eddce2dc | 
[V:3] z8 | 
[V:4] D,4A,,4 | 
[V:1] BAA4^G2 | 
[V:2] dcBAB4 | 
[V:3] z8 | 
[V:4] D,2F,2E,4 | 
[V:1] A8 | 
[V:2] A8 | 
[V:3] z8 | 
[V:4] z2A,,2D,2F,2 | 
[V:1] z8 | 
[V:2] z2E2A2c2 | 
[V:3] z8 | 
[V:4] E,4z2A,2- | 
[V:1] z8 | 
[V:2] B2e3dd2 | 
[V:3] z8 | 
[V:4] A,2G,2F,2E,B,, | 
[V:1] z8 | 
[V:2] e4B2d2 | 
[V:3] z8 | 
[V:4] C,2E,4D,2 | 
[V:1] z4B2d2 | 
[V:2] c2B4B2 | 
[V:3] z8 | 
[V:4] E,4z2B,,2 | 
[V:1] c2B4B2 | 
[V:2] A2d4B2 | 
[V:3] z8 | 
[V:4] C,2D,2B,,2G,,2 | 
[V:1] A2d4c2 | 
[V:2] c2d2B3G | 
[V:3] z8 | 
[V:4] A,,2B,,2G,,4 | 
[V:1] c2d2B3G | 
[V:2] A2B2G2B2 | 
[V:3] z8 | 
[V:4] z8 | 
[V:1] A2B4B,2 | 
[V:2] c2d2B4 | 
[V:3] z8 | 
[V:4] z4B,,3G,, | 
[V:1] C2D2B,3G, | 
[V:2] z8 | 
[V:3] z8 | 
[V:4] A,,2B,,4B,,2 | 
[V:1] A,2B,4D2 | 
[V:2] z8 | 
[V:3] z8 | 
[V:4] C,2D,2B,,3G,, | 
[V:1] C2B,A,G,2E2- | 
[V:2] z2d2e2c2- | 
[V:3] z8 | 
[V:4] A,,2B,,2C,2A,,2 | 
[V:1] E2DB,C4 | 
[V:2] c2BGA4 | 
[V:3] z8 | 
[V:4] E,4z4 | 
[V:1] B,2G4FD | 
[V:2] B2c2BGA2 | 
[V:3] z8 | 
[V:4] E,4z4 | 
[V:1] E2DB,C4 | 
[V:2] G8- | 
[V:3] z8 | 
[V:4] E,6E,2 | 
[V:1] B,8 ||  
[V:2] G8 ||  
[V:3] z8 ||  
[V:4] E,8 ||  
[V:1]  [K:C] [M:2/1][M:3/1]E8G2A2 | 
[V:2]  [K:C] [M:2/1][M:3/1]B6c2d2e2- | 
[V:3]  [K:C] [M:2/1][M:3/1]E4G2A2B2E2 | 
[V:4]  [K:C] [M:2/1][M:3/1]E,6D,C,B,,2A,,2 | 
[V:1] B2E2G2A2B2G2 | 
[V:2] e2dcB2e2d3B | 
[V:3] G2A2B2E2G4 | 
[V:4] E,6D,C,B,,3E, | 
[V:1] z2c3ABEE2A2- | 
[V:2] c2A3FG2A4 | 
[V:3] A4E4z2c2- | 
[V:4] A,,4z4z4 | 
[V:1] AFGCC2zG2EFD | 
[V:2] E4z4z4 | 
[V:3] cABEE2G2A3G | 
[V:4] z4z2E,3C,D,G,, | 
[V:1] G2GE2CD2E4 | 
[V:2] z4z4z2c2- | 
[V:3] G2E2F4E4 | 
[V:4] G,,3C,2A,,B,,2C,3A,,- | 
[V:1] z12 | 
[V:2] cABEE3A2FG2 | 
[V:3] z12 | 
[V:4] A,,F,,G,,2A,,B,,C,D,B,,3E, | 
[V:1] z2c3AB2c3A- | 
[V:2] A3BcdBeA4 | 
[V:3] E12- | 
[V:4] A,,4z4A,,4 | 
[V:1] AFG2A2E2z2E2- | 
[V:2] c2B2A8 | 
[V:3] E12 | 
[V:4] z4A,,4A,,2C,2- | 
[V:1] EFG3FEDC4 | 
[V:2] z4e8 | 
[V:3] E8E4 | 
[V:4] C,D,E,3D,C,B,,A,,2C,2 | 
[V:1] B,3G,A,2B,2z4 | 
[V:2] d8d4- | 
[V:3] G3EF2G2A4 | 
[V:4] G,,2G,2D,2G,3E,F,2 | 
[V:1] z2B2c2d3cBA | 
[V:2] d4z2d2d4 | 
[V:3] B3GA2B2G4 | 
[V:4] G,2G,,2z2G,,2G,,4 | 
[V:1] G3EF2G2E2B2 | 
[V:2] e4d2G2G4 | 
[V:3] z4z4B3G | 
[V:4] z2C,2D,2E,3D,C,B,, | 
[V:1] c2d3cBAG2cB | 
[V:2] z2G3AB2E4 | 
[V:3] A2B2G4e3d | 
[V:4] A,,2G,,2G,,4z4 | 
[V:1] BAc3BA4G2 | 
[V:2] z2E2E4z2e2 | 
[V:3] dce2A4B4 | 
[V:4] z4A,,4z2E,2 | 
[V:1] A2E2z2G2A2c2- | 
[V:2] d2c3AB2A2GF | 
[V:3] A3GF2E2z4 | 
[V:4] F,2A,4G,2F,2E,D, | 
[V:1] c2B2A2GFE3F | 
[V:2] E4z2E2E4 | 
[V:3] z2G2A2c4B2- | 
[V:4] C,2E,2F,2E,D,C,2G,2- | 
[V:1] D2E2A,2G2A2c2- | 
[V:2] z2E2F2E4e2- | 
[V:3] B2G2A2c3BAG/F/ | 
[V:4] G,F,E,2D,2E,2A,,4- | 
[V:1] cBAG/F/E2F2D3E | 
[V:2] edcB/A/B2c2A3B | 
[V:3] E4G2A2F3E | 
[V:4] A,,4z4z4 | 
[V:1] E12- | 
[V:2] B2zBc3BAG/F/E2- | 
[V:3] E12- | 
[V:4] z2G,,2A,,2C,3B,,A,,G,,/F,,/ | 
[V:1] E12- | 
[V:2] E2B2c2e3dcB/A/ | 
[V:3] E12- | 
[V:4] E,,12- | 
[V:1] E12 ||  
[V:2] G12 ||  
[V:3] E12 ||  
[V:4] E,,12 ||  



